icon-svg/xt2-camera.svg

<svg xmlns="http://www.w3.org/2000/svg" fill="#44739e" viewBox="0 0 24 24"><path d="M12 11.1a2.5 2.5 0 1 0 2.5 2.5 2.5 2.5 0 0 0-2.5-2.5m0 4a1.5 1.5 0 1 1 1.5-1.5 1.5 1.5 0 0 1-1.5 1.5m0-5.618a4.144 4.144 0 1 0 4.144 4.144A4.149 4.149 0 0 0 12 9.482m0 7.288a3.144 3.144 0 1 1 3.144-3.144A3.148 3.148 0 0 1 12 16.77M12 9a2.385 2.385 0 1 0-2.384-2.386A2.387 2.387 0 0 0 12 9m0-3.769a1.385 1.385 0 1 1-1.384 1.385A1.387 1.387 0 0 1 12 5.229ZM19.176 2H4.824A2.824 2.824 0 0 0 2 4.824v14.352A2.824 2.824 0 0 0 4.824 22h14.352A2.824 2.824 0 0 0 22 19.176V4.824A2.824 2.824 0 0 0 19.176 2m-2.649 16.615a1.682 1.682 0 0 1-1.682 1.685h-5.69a1.682 1.682 0 0 1-1.682-1.682V5.385A1.682 1.682 0 0 1 9.155 3.7h5.69a1.682 1.682 0 0 1 1.682 1.682z" class="cls-1" data-name="Colore riempimento 1"/></svg>

<svg xmlns="http://www.w3.org/2000/svg" fill="#44739e" width="24" height="24" viewBox="0 0 24 24">
  <path id="Colore_riempimento_1" data-name="Colore riempimento 1" class="cls-1" d="m 12,11.1 a 2.5,2.5 0 1 0 2.5,2.5 2.5,2.5 0 0 0 -2.5,-2.5 z m 0,4 A 1.5,1.5 0 1 1 13.5,13.6 1.5,1.5 0 0 1 12,15.1 Z M 12,9.482 A 4.144,4.144 0 1 0 16.144,13.626 4.149,4.149 0 0 0 12,9.482 Z m 0,7.288 A 3.144,3.144 0 1 1 15.144,13.626 3.148,3.148 0 0 1 12,16.77 Z M 12,9 A 2.385,2.385 0 1 0 9.616,6.614 2.387,2.387 0 0 0 12,9 Z M 12,5.231 A 1.385,1.385 0 1 1 10.616,6.616 1.387,1.387 0 0 1 12,5.229 Z M 19.176,2 H 4.824 A 2.824,2.824 0 0 0 2,4.824 V 19.176 A 2.824,2.824 0 0 0 4.824,22 H 19.176 A 2.824,2.824 0 0 0 22,19.176 V 4.824 A 2.824,2.824 0 0 0 19.176,2 Z M 16.527,18.615 A 1.682,1.682 0 0 1 14.845,20.3 H 9.155 A 1.682,1.682 0 0 1 7.473,18.618 V 5.385 A 1.682,1.682 0 0 1 9.155,3.7 h 5.69 a 1.682,1.682 0 0 1 1.682,1.682 z"/>
</svg>
